src/assets/sepa-bas.svg

<svg width="1440" height="25" viewBox="0 0 1440 25" fill="none" xmlns="http://www.w3.org/2000/svg">
<path d="M1440 4.06299V24.953H1439.88L1440 25H0V4.06599C1.545 4.18999 3.311 4.25199 3.753 4.25199C4.857 4.25199 11.921 4.18999 11.921 4.18999L28.919 1.03999L41.944 1.28799L50.112 1.65799L60.487 0.299993H60.929L67.11 0.793993L75.499 1.04099L80.356 1.53499L86.096 2.15199L94.926 2.89299L101.769 3.38699L105.301 3.94299L112.586 4.37499L120.092 3.75799L129.364 3.88099L133.779 3.26399H142.388L156.517 3.75799L165.568 4.12799L169.1 4.68399L178.813 4.12799L195.591 3.81899L204.863 3.88099L211.485 3.81899L220.095 3.01699H234.886L241.509 3.26399L244.599 2.83099L248.352 2.39899L256.961 2.02899L264.909 1.65899C268.305 1.46899 270.395 1.53399 271.681 1.57399C272.067 1.58599 272.381 1.59599 272.635 1.59599C273.739 1.59599 279.258 2.15199 279.258 2.15199L289.192 2.64599L296.035 3.63399L300.671 4.06599L304.645 4.68399V5.29999L310.826 5.66999L315.904 6.47399L322.526 6.34999C330.253 6.53499 332.902 6.84399 332.902 6.84399L341.291 6.96799C347.03 6.72099 351.666 6.84399 351.666 6.84399L358.289 7.21399L363.587 6.59699L369.989 6.47399L370.21 5.85599L374.404 5.36199L383.455 4.68199L394.493 4.62199C396.922 4.25099 402.44 3.94199 403.544 3.94199C404.207 3.94199 406.856 4.06499 411.271 4.31199L419.218 4.92999L427.607 5.60999L431.139 6.16499L434.009 6.72099L440.632 6.65899L449.462 6.90599L455.202 7.21499L458.734 7.89399L463.37 8.32599L469.992 8.63499L471.386 8.77099L472.2 8.62099L475.398 9.14399L476.191 9.18199L479.043 8.54499L484.342 7.70199L488.977 9.08199L497.145 8.85199L502.444 9.61899L505.976 8.39199L511.053 7.93199L515.027 8.54499L522.974 9.00499L528.051 9.77199L530.48 8.31499L532.687 9.61899L538.648 10.002L538.765 10.489L540.414 10.549L542.88 11.021L548.14 11.151L556.529 10.309L564.476 9.54199C568.892 9.23499 571.541 9.08199 572.203 9.08199C573.307 9.08199 578.826 9.46499 581.254 9.92499L592.071 10.002L598.035 10.558L599.135 10.488L606.885 10.543L606.862 10.462L613.705 9.46499L616.134 8.77499L624.743 7.31899L636.664 7.24199L641.3 8.16199C641.3 8.16199 648.806 8.31499 648.806 8.54499C648.806 8.77499 649.026 9.00499 655.208 8.92899L660.064 9.31199L670.219 9.54199L672.868 8.62199L681.257 8.16199L686.997 7.54899L692.295 6.78199H700.021L710.839 7.01199L717.24 7.39499L727.175 7.24199L740.42 8.08499L751.237 8.00899L762.937 8.77499C762.937 8.77499 768.898 8.62199 770.001 8.62199C771.105 8.62199 778.169 8.23899 780.156 7.62499L792.96 6.78199L802.453 6.47499L813.049 6.93499L823.425 7.01199H832.255L840.865 6.93499L845.721 7.31899L851.682 7.85499L864.706 7.93199L867.797 8.69899L871.55 9.23499L881.042 8.92899L888.99 8.00899H895.392L899.586 7.01199L907.975 6.62899H922.103L931.375 6.78199L937.998 6.93499L949.256 6.16899L964.93 5.24899L970.008 4.63499L976.63 4.25199L981.266 3.71499L984.798 2.87199L990.538 2.48899L998.368 3.41099L1004.99 3.48699L1007.86 2.79699L1011.39 2.10699L1019.78 1.26399L1027.73 0.496993C1032.14 0.190993 1034.79 0.0369929 1035.46 0.0369929C1036.56 0.0369929 1042.08 0.420993 1044.51 0.880993L1055.54 0.956993L1064.6 1.80099L1067 2.79699L1069.01 3.18099L1075.41 3.33399L1080.71 4.10099L1087.33 3.64099C1087.33 3.64099 1091.97 3.48699 1097.71 3.79399L1106.1 3.64099C1106.1 3.64099 1108.75 3.25699 1116.47 3.02699L1123.1 3.18099L1128.17 2.18399L1132.5 2.88499L1136.33 3.02699L1139.33 4.06199L1143.96 3.52599L1150.81 2.29899L1160.74 1.68599C1160.74 1.68599 1166.26 0.995993 1167.36 0.995993C1167.62 0.995993 1167.93 0.982993 1168.32 0.967993C1169.6 0.917993 1171.69 0.835993 1175.09 1.07199L1183.04 1.53199L1191.65 1.99199L1195.4 2.52899L1198.49 3.06599L1205.11 2.75899H1219.91L1228.51 3.75599L1235.14 3.83199L1244.41 3.75599L1261.19 4.13899L1270.9 4.82899L1274.43 4.13899L1283.48 3.67899L1297.61 3.06599H1306.22L1310.64 3.83199L1319.91 3.67899L1327.41 4.44599L1334.7 3.90899L1338.23 3.21899L1345.07 2.60599L1353.9 1.68599L1359.64 0.918993L1364.5 0.305993L1372.89 -0.00100708L1378 0.305993L1379.51 0.409993L1389.89 1.07199L1398.06 0.611993L1411.08 0.305993L1428.08 4.21599C1428.08 4.21599 1435.14 4.29199 1436.25 4.29199C1436.69 4.29199 1438.45 4.21599 1440 4.06199V4.06299Z" fill="#F2F2F2"/>
</svg>

<svg xmlns="http://www.w3.org/2000/svg" width="1440" height="25" fill="none"><path fill="#000" d="M1440 4.063v20.89h-.12l.12.047H0V4.066c1.545.124 3.311.186 3.753.186 1.104 0 8.168-.062 8.168-.062l16.998-3.15 13.025.248 8.168.37L60.487.3h.442l6.181.494 8.389.247 4.857.494 5.74.617 8.83.741 6.843.494 3.532.556 7.285.432 7.506-.617 9.272.123 4.415-.617h8.609l14.129.494 9.051.37 3.532.556 9.713-.556 16.778-.309 9.272.062 6.622-.062 8.61-.802h14.791l6.623.247 3.09-.433 3.753-.432 8.609-.37 7.948-.37c3.396-.19 5.486-.125 6.772-.085.386.012.7.022.954.022 1.104 0 6.623.556 6.623.556l9.934.494 6.843.988 4.636.432 3.974.618V5.3l6.181.37 5.078.804 6.622-.124c7.727.185 10.376.494 10.376.494l8.389.124c5.739-.247 10.375-.124 10.375-.124l6.623.37 5.298-.617 6.402-.123.221-.618 4.194-.494 9.051-.68 11.038-.06c2.429-.371 7.947-.68 9.051-.68.663 0 3.312.123 7.727.37l7.947.618 8.389.68 3.532.555 2.87.556 6.623-.062 8.83.247 5.74.309 3.532.679 4.636.432 6.622.309 1.394.136.814-.15 3.198.523.793.038 2.852-.637 5.299-.843 4.635 1.38 8.168-.23 5.299.767 3.532-1.227 5.077-.46 3.974.613 7.947.46 5.077.767 2.429-1.457 2.207 1.304 5.961.383.117.487 1.649.06 2.466.472 5.26.13 8.389-.842 7.947-.767c4.416-.307 7.065-.46 7.727-.46 1.104 0 6.623.383 9.051.843l10.817.077 5.964.556 1.1-.07 7.75.055-.023-.081 6.843-.997 2.429-.69 8.609-1.456 11.921-.077 4.636.92s7.506.153 7.506.383.22.46 6.402.384l4.856.383 10.155.23 2.649-.92 8.389-.46 5.74-.613 5.298-.767h7.726l10.818.23 6.401.383 9.935-.153 13.245.843 10.817-.076 11.7.766s5.961-.153 7.064-.153c1.104 0 8.168-.383 10.155-.997l12.804-.843 9.493-.307 10.596.46 10.376.077h8.83l8.61-.077 4.856.384 5.961.536 13.024.077 3.091.767 3.753.536 9.492-.306 7.948-.92h6.402l4.194-.997 8.389-.383h14.128l9.272.153 6.623.153 11.258-.766 15.674-.92 5.078-.614 6.622-.383 4.636-.537 3.532-.843 5.74-.383 7.83.922 6.622.076 2.87-.69 3.53-.69 8.39-.843 7.95-.767c4.41-.306 7.06-.46 7.73-.46 1.1 0 6.62.384 9.05.844l11.03.076 9.06.844 2.4.996 2.01.384 6.4.153 5.3.767 6.62-.46s4.64-.154 10.38.153l8.39-.153s2.65-.384 10.37-.614l6.63.154 5.07-.997 4.33.701 3.83.142 3 1.035 4.63-.536 6.85-1.227 9.93-.613s5.52-.69 6.62-.69c.26 0 .57-.013.96-.028 1.28-.05 3.37-.132 6.77.104l7.95.46 8.61.46 3.75.537 3.09.537 6.62-.307h14.8l8.6.997 6.63.076 9.27-.076 16.78.383 9.71.69 3.53-.69 9.05-.46 14.13-.613h8.61l4.42.766 9.27-.153 7.5.767 7.29-.537 3.53-.69 6.84-.613 8.83-.92 5.74-.767 4.86-.613 8.39-.307 5.11.307 1.51.104 10.38.662 8.17-.46 13.02-.306 17 3.91s7.06.076 8.17.076c.44 0 2.2-.076 3.75-.23Z"/></svg>
